X: 153
T:Loch Lomond
M:4/4
L:1/8
K:G
DF|"G"G2 G>A B2 AG|"D7"A2 A>G "C"E2 DF|"G"G2 G2 G2 Bd|"C"e4 "G"d3 d|!
"C"e2 ed "G"B2 Bd|"Am"cB AG "C"E2 DF|"G"G<G B<d "C" e2 dB|"D"A4 "G"G2 D2
|
|!
"G"G2 G>A B2 B>A|"C"G2 G>E "G"D2 "D"D>F|"G"G2 GG "Em7"G2 Bd|"C"e4 "G"d3
d
|!
"C"e2 ed "G"B2 Bd|"Am"cB AG "C"E2 "D"DF|"G"G<G B<d "C"e2 dB|"D7"A4 "G"G2
 :||ED||
% <A name="D1X154">
